X: 36111
T: Schottische De Saint-Malo
R: barndance
M: 4/4
K: Gmajor
|:BABc B2 B2|AGAB cBAG|BABc B2 B2|A2 A2 G3 A:|
|:B2 d2 g4|f2 e2 d3 A|BABc B2 B2|1 AGAB cBAG:|2 A2 A2 G3 A||

